X: 41767
T: Varsovienne
R: mazurka
M: 3/4
K: Bminor
|:f>d B2 B2|g>e c2 c2|F>^A c>e d>c|B>^A B>c d>e|
f>d B2 B2|g>e c2 c2|F>^A c>e d>c|B2 B4:|
|:d>B e>d c>B|B2 ^A4|F>^A c>e d>c|B>^A B>c d>B|
d>B e>d c>B|B2 ^A4|F>^A c>e d>c|B2 B4:|

